images/icons/twitter.svg

<svg width="16" height="16" viewBox="0 0 16 16" fill="none" xmlns="http://www.w3.org/2000/svg">
<g clip-path="url(#clip0_395102_1029)">
<rect width="16" height="16" fill="white"/>
<path d="M16 3.03888C15.405 3.29988 14.771 3.47288 14.11 3.55688C14.79 3.15088 15.309 2.51288 15.553 1.74388C14.919 2.12188 14.219 2.38888 13.473 2.53788C12.871 1.89688 12.013 1.49988 11.077 1.49988C9.261 1.49988 7.799 2.97388 7.799 4.78088C7.799 5.04088 7.821 5.29088 7.875 5.52888C5.148 5.39588 2.735 4.08888 1.114 2.09788C0.831 2.58888 0.665 3.15088 0.665 3.75588C0.665 4.89188 1.25 5.89888 2.122 6.48188C1.595 6.47188 1.078 6.31888 0.64 6.07788C0.64 6.08788 0.64 6.10088 0.64 6.11388C0.64 7.70788 1.777 9.03188 3.268 9.33688C3.001 9.40988 2.71 9.44488 2.408 9.44488C2.198 9.44488 1.986 9.43288 1.787 9.38888C2.212 10.6879 3.418 11.6429 4.852 11.6739C3.736 12.5469 2.319 13.0729 0.785 13.0729C0.516 13.0729 0.258 13.0609 0 13.0279C1.453 13.9649 3.175 14.4999 5.032 14.4999C11.068 14.4999 14.368 9.49988 14.368 5.16588C14.368 5.02088 14.363 4.88088 14.356 4.74188C15.007 4.27988 15.554 3.70288 16 3.03888Z" fill="#F4F4FD"/>
</g>
<defs>
<clipPath id="clip0_395102_1029">
<rect width="16" height="16" fill="white"/>
</clipPath>
</defs>
</svg>

<svg xmlns="http://www.w3.org/2000/svg" width="16" height="16" fill="none">
  <g clip-path="url(#a)">
    <path fill="#F4F4FD" d="M16 3.039a6.839 6.839 0 0 1-1.89.518 3.262 3.262 0 0 0 1.443-1.813 6.555 6.555 0 0 1-2.08.794A3.28 3.28 0 0 0 7.799 4.78c0 .26.022.51.076.748a9.284 9.284 0 0 1-6.761-3.431 3.285 3.285 0 0 0 1.008 4.384A3.24 3.24 0 0 1 .64 6.078v.036a3.295 3.295 0 0 0 2.628 3.223 3.274 3.274 0 0 1-.86.108 2.9 2.9 0 0 1-.621-.056 3.311 3.311 0 0 0 3.065 2.285 6.59 6.59 0 0 1-4.067 1.399c-.269 0-.527-.012-.785-.045A9.234 9.234 0 0 0 5.032 14.5c6.036 0 9.336-5 9.336-9.334 0-.145-.005-.285-.012-.424A6.544 6.544 0 0 0 16 3.039Z"/>
  </g>
  <defs>
    <clipPath id="a">
      <path fill="#fff" d="M0 0h16v16H0z"/>
    </clipPath>
  </defs>
</svg>
